svg/iris.svg

<svg viewBox="0 0 20 20" xmlns="http://www.w3.org/2000/svg">
<rect width="100%" height="100%" fill="#1A8CCB"/>
<path d="M13.7923 10C13.7923 12.3052 12.0359 14.1739 9.86923 14.1739C7.70258 14.1739 5.94615 12.3052 5.94615 10C5.94615 7.69481 7.70258 5.82609 9.86923 5.82609C12.0359 5.82609 13.7923 7.69481 13.7923 10Z" fill="white"/>
<path fill-rule="evenodd" clip-rule="evenodd" d="M12.4008 16C15.7693 16 18.5 13.3137 18.5 10V4H7.59924C4.23072 4 1.5 6.68629 1.5 10V16H12.4008ZM13.0814 5.02128H17.4618V10C17.4618 12.4962 15.5944 14.5633 13.159 14.9232C14.6486 13.8388 15.6231 12.0381 15.6231 10C15.6231 7.92673 14.6147 6.09908 13.0814 5.02128ZM6.49378 5.1404C5.05261 6.2308 4.11538 8.00127 4.11538 10C4.11538 12.0733 5.1238 13.9009 6.65707 14.9787H2.53817V10C2.53817 7.62385 4.23028 5.63649 6.49378 5.1404ZM9.86923 5.02128C7.33317 5.02128 5.16154 7.18583 5.16154 10C5.16154 12.8142 7.33317 14.9787 9.86923 14.9787C12.4053 14.9787 14.5769 12.8142 14.5769 10C14.5769 7.18583 12.4053 5.02128 9.86923 5.02128Z" fill="white"/>
</svg>

<svg xmlns="http://www.w3.org/2000/svg" viewBox="0 0 20 20">
  <rect width="100%" height="100%" fill="#1A8CCB"/>
  <path fill="#fff" d="M13.8 10c0 2.3-1.76 4.17-3.93 4.17S5.95 12.31 5.95 10c0-2.3 1.75-4.17 3.92-4.17s3.92 1.86 3.92 4.17Z"/>
  <path fill="#fff" fill-rule="evenodd" d="M12.4 16c3.37 0 6.1-2.69 6.1-6V4H7.6a6.05 6.05 0 0 0-6.1 6v6h10.9Zm.68-10.98h4.38V10a5 5 0 0 1-4.3 4.92A6.07 6.07 0 0 0 15.62 10c0-2.07-1-3.9-2.54-4.98Zm-6.59.12A6.08 6.08 0 0 0 4.12 10c0 2.07 1 3.9 2.54 4.98H2.54V10a5 5 0 0 1 3.95-4.86Zm3.38-.12A4.85 4.85 0 0 0 5.17 10a4.85 4.85 0 0 0 4.7 4.98c2.54 0 4.7-2.17 4.7-4.98a4.85 4.85 0 0 0-4.7-4.98Z" clip-rule="evenodd"/>
</svg>
